static/images/common/business.svg

<svg viewBox="0 0 1200 1200" xmlns="http://www.w3.org/2000/svg"><path d="m513.13 447.41a84.93 84.93 0 1 1 84.92 84.93 84.92 84.92 0 0 1 -84.92-84.93z" fill="#dfdfdf"/><path d="m322.44 1055.12-24.72 14.57v3.59h48.28v-18.16z"/><path d="m449.18 1056.12h23.7v16.31h-23.7z"/><path d="m261.43 797.1 88.13 26.17-15 50.58-88.13-26.17z" fill="#dfdfdf"/><path d="m337.18 719.87-15.88 336.84 26.76.22 54.84-220.43-1.31-109.67z" fill="#61cad6"/><path d="m476 719.21c-.43 9.58-1.53 338.19-1.53 338.19l-26.1.19-81.16-330.11s109.24-17.84 108.79-8.27z" fill="#6bd5e1"/><path d="m313.16 626.73c-5.42 9.14-18.4 78.1-18.28 94.23-4.18 14.45-.79 57.9-.68 63.66s-1 27.31.23 32.61c-3.28 8.36 13.31 25.74 18.39 26.19s11.06-8.46 11.06-12.76c0-10.94-7.13-20.19-7-24.71.68-22.57 10.5-80.13 11.74-84s5.42-11.4 8.92-14.45 5.19-70.19 5.19-70.19-26.68-15.45-29.57-10.58z" fill="#e49d75"/><path d="m384.2 510.42c0 2.84 1.74 28.9-1.58 34.75s32.78 3.87 32.78-.56-1.19-25 1.73-32.45-32.93-4.59-32.93-1.74z" fill="#e49d75"/><path d="m507.05 587.61 5.28 3.85s45.36-87.82 45.91-91-3-11-2.46-14.73 18.79-21.82 24.51-22.1 6.17 2.55 4.77 5.34-12.35 13.91-12.35 13.91 7.58-2.09 10.23 0 12.7 15.49 8.93 21.35-11 8.79-12.42 12.28-44.52 124.69-49.81 127.08c-8.93 4-37.81-10-42.14-16.88s19.55-39.1 19.55-39.1z" fill="#e49d75"/><path d="m366.88 549.77c29.65 10.71 10.35 89.52.94 95-7.45 4.32-61.9-12.84-63.76-21.07-2.76-12.19 37.05-83.23 62.82-73.93z" fill="#ffc48e"/><path d="m404.17 535.55c76.13-.25 83.53 173.37 70.75 185.25-23 21.41-133.65 11.82-138.47.46-7.91-18.62-4.19-185.48 67.72-185.71z" fill="#ffd98e"/><path d="m415.27 566.27c13.13-28.65 90.07-2.86 94.71 7 3.69 7.79-18 60.62-26.31 61.79-12.35 1.7-79.82-43.89-68.4-68.79z" fill="#ffe3ad"/><path d="m371 473.36c0-24.88 15.39-45.05 34.38-45.05s34.38 20.17 34.38 45.05-15.39 45.06-34.38 45.06-34.38-20.18-34.38-45.06z" fill="#e49d75"/><path d="m359.68 467.56c-1.26-18.8 9.61-36.27 13.48-47.25 3.34-10.56 10-18.4 18.6-18.81s11 1.77 16.73 1.56 15.68-6.69 22.16-6.69 10.35 4.63 14.35 7.53 12.26 8.36 12.23 13.17c-.17 28.92-26.6 26.18-34.29 34.49-5.22 4.39-5.54 14.64-8.15 16.31s-8.26.68-8.36 8.89c-.06 4.83 1.25 8.78 4.7 9.09s4.67 1.57 4.6 4.08c-.73 24.22-17.83 28.77-24.8 28.07-9.77-.92-12.54-12.85-14.95-16.93-9.24-10.31-15.52-21.69-16.3-33.51z" fill="#ff8364"/><path d="m593.93 451.1 12.73-54.17 12.74-54.18 24.6 12.88 24.57 12.88-37.3 41.3z" fill="#949494"/><path d="m724.7 367.17h244.18v150.16h-244.18z" fill="#dfdfdf"/><path d="m739.43 379.23h21.67v126h-21.67z" fill="#949494"/><path d="m771.6 397.5h21.67v107.77h-21.67z" fill="#949494"/><path d="m803.78 425.22h21.67v80h-21.67z" fill="#949494"/><path d="m836 462.83h21.66v42.44h-21.66z" fill="#949494"/><path d="m868.13 426.4h21.67v78.87h-21.67z" fill="#949494"/><path d="m900.31 398.91h21.69v106.36h-21.69z" fill="#949494"/><path d="m932.49 379.23h21.66v126h-21.66z" fill="#949494"/><g fill="none" stroke="#000" stroke-linecap="round" stroke-linejoin="round"><path d="m609.3 662.28 45.9-45.91"/><path d="m681.08 640.78 49.27-49.26"/><path d="m756 615.27 10.71-10.71"/><path d="m808.57 645.79 64-64"/><path d="m655.35 615.61 24.59 24.6"/><path d="m730.42 592 24.38 24.38"/><path d="m767.34 604 41.27 41.27"/><path d="m874.2 580.21 15.92 15.91"/></g><path d="m652.73 616.42a2.75 2.75 0 1 1 2.75 2.75 2.75 2.75 0 0 1 -2.75-2.75z"/><path d="m677.89 639.83a2.75 2.75 0 1 1 2.75 2.75 2.75 2.75 0 0 1 -2.75-2.75z"/><path d="m727.39 592.84a2.75 2.75 0 1 1 2.74 2.75 2.75 2.75 0 0 1 -2.74-2.75z"/><path d="m752.61 615.75a2.75 2.75 0 1 1 2.75 2.75 2.75 2.75 0 0 1 -2.75-2.75z"/><path d="m764.53 604.19a2.75 2.75 0 1 1 2.75 2.75 2.75 2.75 0 0 1 -2.75-2.75z"/><path d="m806.05 644.61a2.75 2.75 0 1 1 2.75 2.75 2.75 2.75 0 0 1 -2.75-2.75z"/><path d="m871.41 581a2.75 2.75 0 1 1 2.75 2.75 2.75 2.75 0 0 1 -2.75-2.75z"/></svg>

<svg id="Layer_1" data-name="Layer 1" xmlns="http://www.w3.org/2000/svg" viewBox="0 0 1200 1200"><defs><style>.cls-1{opacity:0.83;}.cls-2{fill:#dfdfdf;}.cls-3{fill:#61cad6;}.cls-4{fill:#6bd5e1;}.cls-5{fill:#e49d75;}.cls-6{fill:#ffc48e;}.cls-7{fill:#ffd98e;}.cls-8{fill:#ffe3ad;}.cls-9{fill:#ff8364;}.cls-10{fill:#949494;}.cls-11{fill:none;stroke:#000;stroke-linecap:round;stroke-linejoin:round;}</style></defs><title>Artboard 1</title><g id="Layer_2" data-name="Layer 2"><path class="cls-2" d="M513.13,447.41a84.93,84.93,0,1,1,84.92,84.93A84.92,84.92,0,0,1,513.13,447.41Z"/><path d="M322.44,1055.12l-24.72,14.57v3.59H346v-18.16Z"/><path d="M449.18,1056.12h23.7v16.31h-23.7Z"/><path class="cls-2" d="M261.43,797.1l88.13,26.17-15,50.58-88.13-26.17Z"/><path class="cls-3" d="M337.18,719.87,321.3,1056.71l26.76.22L402.9,836.5l-1.31-109.67Z"/><path class="cls-4" d="M476,719.21c-.43,9.58-1.53,338.19-1.53,338.19l-26.1.19L367.21,727.48S476.45,709.64,476,719.21Z"/><path class="cls-5" d="M313.16,626.73c-5.42,9.14-18.4,78.1-18.28,94.23-4.18,14.45-.79,57.9-.68,63.66s-1,27.31.23,32.61c-3.28,8.36,13.31,25.74,18.39,26.19s11.06-8.46,11.06-12.76c0-10.94-7.13-20.19-7-24.71.68-22.57,10.5-80.13,11.74-84s5.42-11.4,8.92-14.45,5.19-70.19,5.19-70.19S316.05,621.86,313.16,626.73Z"/><path class="cls-5" d="M384.2,510.42c0,2.84,1.74,28.9-1.58,34.75s32.78,3.87,32.78-.56-1.19-25,1.73-32.45S384.2,507.57,384.2,510.42Z"/><path class="cls-5" d="M507.05,587.61l5.28,3.85s45.36-87.82,45.91-91-3-11-2.46-14.73,18.79-21.82,24.51-22.1,6.17,2.55,4.77,5.34-12.35,13.91-12.35,13.91,7.58-2.09,10.23,0,12.7,15.49,8.93,21.35-11,8.79-12.42,12.28S534.93,641.2,529.64,643.59c-8.93,4-37.81-10-42.14-16.88S507.05,587.61,507.05,587.61Z"/><path class="cls-6" d="M366.88,549.77c29.65,10.71,10.35,89.52.94,95-7.45,4.32-61.9-12.84-63.76-21.07C301.3,611.51,341.11,540.47,366.88,549.77Z"/><path class="cls-7" d="M404.17,535.55c76.13-.25,83.53,173.37,70.75,185.25-23,21.41-133.65,11.82-138.47.46C328.54,702.64,332.26,535.78,404.17,535.55Z"/><path class="cls-8" d="M415.27,566.27c13.13-28.65,90.07-2.86,94.71,7,3.69,7.79-18,60.62-26.31,61.79C471.32,636.76,403.85,591.17,415.27,566.27Z"/><path class="cls-5" d="M371,473.36c0-24.88,15.39-45.05,34.38-45.05s34.38,20.17,34.38,45.05-15.39,45.06-34.38,45.06S371,498.24,371,473.36Z"/><path class="cls-9" d="M359.68,467.56c-1.26-18.8,9.61-36.27,13.48-47.25,3.34-10.56,10-18.4,18.6-18.81s11,1.77,16.73,1.56,15.68-6.69,22.16-6.69S441,401,445,403.9s12.26,8.36,12.23,13.17c-.17,28.92-26.6,26.18-34.29,34.49-5.22,4.39-5.54,14.64-8.15,16.31s-8.26.68-8.36,8.89c-.06,4.83,1.25,8.78,4.7,9.09s4.67,1.57,4.6,4.08C415,514.15,397.9,518.7,390.93,518c-9.77-.92-12.54-12.85-14.95-16.93C366.74,490.76,360.46,479.38,359.68,467.56Z"/><path class="cls-10" d="M593.93,451.1l12.73-54.17,12.74-54.18L644,355.63l24.57,12.88-37.3,41.3Z"/><path class="cls-2" d="M724.7,367.17H968.88V517.33H724.7Z"/><path class="cls-10" d="M739.43,379.23H761.1v126H739.43Z"/><path class="cls-10" d="M771.6,397.5h21.67V505.27H771.6Z"/><path class="cls-10" d="M803.78,425.22h21.67v80H803.78Z"/><path class="cls-10" d="M836,462.83h21.66v42.44H836Z"/><path class="cls-10" d="M868.13,426.4H889.8v78.87H868.13Z"/><path class="cls-10" d="M900.31,398.91H922V505.27H900.31Z"/><path class="cls-10" d="M932.49,379.23h21.66v126H932.49Z"/><path class="cls-11" d="M609.3,662.28l45.9-45.91"/><path class="cls-11" d="M681.08,640.78l49.27-49.26"/><path class="cls-11" d="M756,615.27l10.71-10.71"/><path class="cls-11" d="M808.57,645.79l64-64"/><path class="cls-11" d="M655.35,615.61l24.59,24.6"/><path class="cls-11" d="M730.42,592l24.38,24.38"/><path class="cls-11" d="M767.34,604l41.27,41.27"/><path class="cls-11" d="M874.2,580.21l15.92,15.91"/><path d="M652.73,616.42a2.75,2.75,0,1,1,2.75,2.75A2.75,2.75,0,0,1,652.73,616.42Z"/><path d="M677.89,639.83a2.75,2.75,0,1,1,2.75,2.75A2.75,2.75,0,0,1,677.89,639.83Z"/><path d="M727.39,592.84a2.75,2.75,0,1,1,2.74,2.75A2.75,2.75,0,0,1,727.39,592.84Z"/><path d="M752.61,615.75a2.75,2.75,0,1,1,2.75,2.75A2.75,2.75,0,0,1,752.61,615.75Z"/><path d="M764.53,604.19a2.75,2.75,0,1,1,2.75,2.75A2.75,2.75,0,0,1,764.53,604.19Z"/><path d="M806.05,644.61a2.75,2.75,0,1,1,2.75,2.75A2.75,2.75,0,0,1,806.05,644.61Z"/><path d="M871.41,581a2.75,2.75,0,1,1,2.75,2.75A2.75,2.75,0,0,1,871.41,581Z"/></g></svg>
